program/img/gates/and.svg

<?xml version="1.0" encoding="UTF-8" standalone="no"?>
<!-- Created with Inkscape (http://www.inkscape.org/) -->
<svg
   xmlns:dc="http://purl.org/dc/elements/1.1/"
   xmlns:cc="http://creativecommons.org/ns#"
   xmlns:rdf="http://www.w3.org/1999/02/22-rdf-syntax-ns#"
   xmlns:svg="http://www.w3.org/2000/svg"
   xmlns="http://www.w3.org/2000/svg"
   xmlns:sodipodi="http://sodipodi.sourceforge.net/DTD/sodipodi-0.dtd"
   xmlns:inkscape="http://www.inkscape.org/namespaces/inkscape"
   width="100"
   height="50"
   id="svg2"
   sodipodi:version="0.32"
   inkscape:version="0.46"
   version="1.0"
   sodipodi:docname="AND ANSI.svg"
   inkscape:output_extension="org.inkscape.output.svg.inkscape">
  <defs
     id="defs4">
    <inkscape:perspective
       sodipodi:type="inkscape:persp3d"
       inkscape:vp_x="0 : 15 : 1"
       inkscape:vp_y="0 : 1000 : 0"
       inkscape:vp_z="50 : 15 : 1"
       inkscape:persp3d-origin="25 : 10 : 1"
       id="perspective2714" />
    <inkscape:perspective
       sodipodi:type="inkscape:persp3d"
       inkscape:vp_x="0 : 0.5 : 1"
       inkscape:vp_y="0 : 1000 : 0"
       inkscape:vp_z="1 : 0.5 : 1"
       inkscape:persp3d-origin="0.5 : 0.33333333 : 1"
       id="perspective2806" />
    <inkscape:perspective
       id="perspective2819"
       inkscape:persp3d-origin="372.04724 : 350.78739 : 1"
       inkscape:vp_z="744.09448 : 526.18109 : 1"
       inkscape:vp_y="0 : 1000 : 0"
       inkscape:vp_x="0 : 526.18109 : 1"
       sodipodi:type="inkscape:persp3d" />
    <inkscape:perspective
       id="perspective2777"
       inkscape:persp3d-origin="75 : 40 : 1"
       inkscape:vp_z="150 : 60 : 1"
       inkscape:vp_y="0 : 1000 : 0"
       inkscape:vp_x="0 : 60 : 1"
       sodipodi:type="inkscape:persp3d" />
    <inkscape:perspective
       id="perspective3275"
       inkscape:persp3d-origin="50 : 33.333333 : 1"
       inkscape:vp_z="100 : 50 : 1"
       inkscape:vp_y="0 : 1000 : 0"
       inkscape:vp_x="0 : 50 : 1"
       sodipodi:type="inkscape:persp3d" />
    <inkscape:perspective
       id="perspective5533"
       inkscape:persp3d-origin="32 : 21.333333 : 1"
       inkscape:vp_z="64 : 32 : 1"
       inkscape:vp_y="0 : 1000 : 0"
       inkscape:vp_x="0 : 32 : 1"
       sodipodi:type="inkscape:persp3d" />
  </defs>
  <sodipodi:namedview
     id="base"
     pagecolor="#ffffff"
     bordercolor="#666666"
     borderopacity="1.0"
     inkscape:pageopacity="0.0"
     inkscape:pageshadow="2"
     inkscape:zoom="8"
     inkscape:cx="56.698348"
     inkscape:cy="25.326899"
     inkscape:document-units="px"
     inkscape:current-layer="layer1"
     showgrid="true"
     inkscape:grid-bbox="true"
     inkscape:grid-points="true"
     gridtolerance="10000"
     inkscape:window-width="1399"
     inkscape:window-height="874"
     inkscape:window-x="33"
     inkscape:window-y="0"
     inkscape:snap-bbox="true">
    <inkscape:grid
       id="GridFromPre046Settings"
       type="xygrid"
       originx="0px"
       originy="0px"
       spacingx="1px"
       spacingy="1px"
       color="#0000ff"
       empcolor="#0000ff"
       opacity="0.2"
       empopacity="0.4"
       empspacing="5"
       visible="true"
       enabled="true" />
  </sodipodi:namedview>
  <metadata
     id="metadata7">
    <rdf:RDF>
      <cc:Work
         rdf:about="">
        <dc:format>image/svg+xml</dc:format>
        <dc:type
           rdf:resource="http://purl.org/dc/dcmitype/StillImage" />
      </cc:Work>
    </rdf:RDF>
  </metadata>
  <g
     inkscape:label="Layer 1"
     inkscape:groupmode="layer"
     id="layer1">
    <path
       style="fill:none;stroke:#000000;stroke-width:2;stroke-linecap:butt;stroke-linejoin:miter;stroke-opacity:1"
       d="m 70,25 c 20,0 25,0 25,0"
       id="path3059"
       sodipodi:nodetypes="cc" />
    <path
       style="fill:none;stroke:#000000;stroke-width:2;stroke-linecap:butt;stroke-linejoin:miter;stroke-opacity:1"
       d="M 31,15 5,15"
       id="path3061" />
    <path
       style="fill:none;stroke:#000000;stroke-width:1.99999988;stroke-linecap:butt;stroke-linejoin:miter;stroke-opacity:1"
       d="M 32,35 5,35"
       id="path3944" />
    <path
       style="font-size:medium;font-style:normal;font-variant:normal;font-weight:normal;font-stretch:normal;text-indent:0;text-align:start;text-decoration:none;line-height:normal;letter-spacing:normal;word-spacing:normal;text-transform:none;direction:ltr;block-progression:tb;writing-mode:lr-tb;text-anchor:start;fill:#000000;fill-opacity:1;stroke:none;stroke-width:3;marker:none;visibility:visible;display:inline;overflow:visible;enable-background:accumulate;font-family:Bitstream Vera Sans;-inkscape-font-specification:Bitstream Vera Sans"
       d="M 30,5 L 30,6.4285714 L 30,43.571429 L 30,45 L 31.428571,45 L 50.47619,45 C 61.744098,45 70.47619,35.999955 70.47619,25 C 70.47619,14.000045 61.744099,5.0000002 50.47619,5 C 50.47619,5 50.47619,5 31.428571,5 L 30,5 z M 32.857143,7.8571429 C 40.834264,7.8571429 45.918368,7.8571429 48.095238,7.8571429 C 49.285714,7.8571429 49.880952,7.8571429 50.178571,7.8571429 C 50.327381,7.8571429 50.409227,7.8571429 50.446429,7.8571429 C 50.465029,7.8571429 50.471543,7.8571429 50.47619,7.8571429 C 60.236853,7.857143 67.142857,15.497098 67.142857,25 C 67.142857,34.502902 59.760662,42.142857 50,42.142857 L 32.857143,42.142857 L 32.857143,7.8571429 z"
       id="path2884"
       sodipodi:nodetypes="ccccccsccccsssssccc" />
  </g>
</svg>

<?xml version="1.0" encoding="utf-8"?>
<!-- Generator: Adobe Illustrator 15.1.0, SVG Export Plug-In . SVG Version: 6.00 Build 0)  -->
<!DOCTYPE svg PUBLIC "-//W3C//DTD SVG 1.1//EN" "http://www.w3.org/Graphics/SVG/1.1/DTD/svg11.dtd">
<svg version="1.1"
	 id="svg2" xmlns:dc="http://purl.org/dc/elements/1.1/" xmlns:cc="http://creativecommons.org/ns#" xmlns:rdf="http://www.w3.org/1999/02/22-rdf-syntax-ns#" xmlns:svg="http://www.w3.org/2000/svg" xmlns:sodipodi="http://sodipodi.sourceforge.net/DTD/sodipodi-0.dtd" xmlns:inkscape="http://www.inkscape.org/namespaces/inkscape" sodipodi:version="0.32" inkscape:version="0.46" sodipodi:docname="AND ANSI.svg" inkscape:output_extension="org.inkscape.output.svg.inkscape"
	 xmlns="http://www.w3.org/2000/svg" xmlns:xlink="http://www.w3.org/1999/xlink" x="0px" y="0px" width="100px" height="50px"
	 viewBox="0 0 100 50" enable-background="new 0 0 100 50" xml:space="preserve">
<defs>
	
	
		<inkscape:perspective  id="perspective2714" inkscape:vp_z="50 : 15 : 1" inkscape:vp_y="0 : 1000 : 0" inkscape:vp_x="0 : 15 : 1" sodipodi:type="inkscape:persp3d" inkscape:persp3d-origin="25 : 10 : 1">
		</inkscape:perspective>
	
		<inkscape:perspective  id="perspective2806" inkscape:vp_z="1 : 0.5 : 1" inkscape:vp_y="0 : 1000 : 0" inkscape:vp_x="0 : 0.5 : 1" sodipodi:type="inkscape:persp3d" inkscape:persp3d-origin="0.5 : 0.33333333 : 1">
		</inkscape:perspective>
	
		<inkscape:perspective  id="perspective2819" inkscape:vp_z="744.09448 : 526.18109 : 1" inkscape:vp_y="0 : 1000 : 0" inkscape:vp_x="0 : 526.18109 : 1" sodipodi:type="inkscape:persp3d" inkscape:persp3d-origin="372.04724 : 350.78739 : 1">
		</inkscape:perspective>
	
		<inkscape:perspective  id="perspective2777" inkscape:vp_z="150 : 60 : 1" inkscape:vp_y="0 : 1000 : 0" inkscape:vp_x="0 : 60 : 1" sodipodi:type="inkscape:persp3d" inkscape:persp3d-origin="75 : 40 : 1">
		</inkscape:perspective>
	
		<inkscape:perspective  id="perspective3275" inkscape:vp_z="100 : 50 : 1" inkscape:vp_y="0 : 1000 : 0" inkscape:vp_x="0 : 50 : 1" sodipodi:type="inkscape:persp3d" inkscape:persp3d-origin="50 : 33.333333 : 1">
		</inkscape:perspective>
	
		<inkscape:perspective  id="perspective5533" inkscape:vp_z="64 : 32 : 1" inkscape:vp_y="0 : 1000 : 0" inkscape:vp_x="0 : 32 : 1" sodipodi:type="inkscape:persp3d" inkscape:persp3d-origin="32 : 21.333333 : 1">
		</inkscape:perspective>
</defs>
<sodipodi:namedview  id="base" gridtolerance="10000" showgrid="true" inkscape:cy="25.326899" inkscape:cx="56.698348" inkscape:zoom="8" borderopacity="1.0" bordercolor="#666666" pagecolor="#ffffff" inkscape:snap-bbox="true" inkscape:window-y="0" inkscape:window-x="33" inkscape:window-height="874" inkscape:window-width="1399" inkscape:grid-points="true" inkscape:grid-bbox="true" inkscape:current-layer="layer1" inkscape:document-units="px" inkscape:pageshadow="2" inkscape:pageopacity="0.0">
	
		<inkscape:grid  color="#0000ff" type="xygrid" visible="true" originx="0px" enabled="true" opacity="0.2" originy="0px" id="GridFromPre046Settings" empspacing="5" empopacity="0.4" empcolor="#0000ff" spacingy="1px" spacingx="1px">
		</inkscape:grid>
</sodipodi:namedview>
<g>
	<path id="path3061_8_" fill="none" stroke="#000000" stroke-width="2" d="M100,22.5H69"/>
	<path id="path3061_7_" fill="none" stroke="#000000" stroke-width="2" d="M100,27.5H69"/>
	<path id="path3061_6_" fill="none" stroke="#FFFFFF" stroke-width="3" d="M100,25H69"/>
</g>
<path d="M30,5v1.429v37.143V45h1.429h19.047c11.268,0,20-9,20-20s-8.732-20-20-20c0,0,0,0-19.047,0H30z"/>
<path fill="#FFFFFF" d="M32.857,7.857c7.978,0,13.062,0,15.238,0c1.19,0,1.786,0,2.083,0c0.148,0,0.23,0,0.268,0
	c0.019,0,0.025,0,0.03,0c9.76,0,16.667,7.64,16.667,17.143S59.761,42.143,50,42.143H32.857V7.857z"/>
<g>
	<path id="path3061_3_" fill="none" stroke="#000000" stroke-width="2" d="M30,12.5H0"/>
	<path id="path3061_2_" fill="none" stroke="#000000" stroke-width="2" d="M30,17.5H0"/>
	<path id="path3061_1_" fill="none" stroke="#FFFFFF" stroke-width="3" d="M30,15H0"/>
</g>
<g>
	<path id="path3061_9_" fill="none" stroke="#000000" stroke-width="2" d="M30,32.5H0"/>
	<path id="path3061_5_" fill="none" stroke="#000000" stroke-width="2" d="M30,37.5H0"/>
	<path id="path3061_4_" fill="none" stroke="#FFFFFF" stroke-width="3" d="M30,35H0"/>
</g>
</svg>
